src/16/panel/indicator-cpufreq-50.svg

<svg xmlns="http://www.w3.org/2000/svg" width="16" height="16" version="1.1">
 <defs>
  <style id="current-color-scheme" type="text/css">
   .ColorScheme-Text { color:#bebebe; } .ColorScheme-Highlight { color:#5294e2; }
  </style>
 </defs>
 <path style="fill:currentColor" class="ColorScheme-Text" d="M 3.3477,0 A 0.25823,0.25823 0 0 0 3.0938,0.2617 V 1.8301 C 2.4445,1.9388 1.9388,2.4445 1.8301,3.0938 H 0.2617 A 0.25875,0.25875 0 1 0 0.2617,3.6113 H 1.8027 V 6.1934 H 0.2617 A 0.25823,0.25823 0 1 0 0.2617,6.709 H 1.8027 V 9.291 H 0.2617 A 0.25823,0.25823 0 1 0 0.2617,9.807 H 1.8027 V 12.389 H 0.2617 A 0.2585,0.2585 0 1 0 0.2617,12.906 H 1.8301 C 1.9388,13.556 2.4445,14.061 3.0938,14.17 V 15.738 A 0.25875,0.25875 0 1 0 3.6113,15.738 V 14.197 H 6.1934 V 15.738 A 0.25823,0.25823 0 1 0 6.709,15.738 V 14.197 H 9.291 V 15.738 A 0.25823,0.25823 0 1 0 9.807,15.738 V 14.197 H 12.389 V 15.738 A 0.2585,0.2585 0 1 0 12.906,15.738 V 14.17 C 13.556,14.061 14.061,13.556 14.17,12.906 H 15.738 A 0.25823,0.25823 0 0 0 16,12.645 0.25823,0.25823 0 0 0 15.738,12.389 H 14.197 V 9.807 H 15.738 A 0.25823,0.25823 0 0 0 16,9.545 0.25823,0.25823 0 0 0 15.738,9.291 H 14.197 V 6.709 H 15.738 A 0.25823,0.25823 0 0 0 16,6.4473 0.25823,0.25823 0 0 0 15.738,6.1934 H 14.197 V 3.6113 H 15.738 A 0.25823,0.25823 0 0 0 16,3.3477 0.25823,0.25823 0 0 0 15.738,3.0938 H 14.17 C 14.061,2.4445 13.556,1.9388 12.906,1.8301 V 0.2617 A 0.25823,0.25823 0 0 0 12.643,0 0.25823,0.25823 0 0 0 12.389,0.2617 V 1.8027 H 9.807 V 0.2617 A 0.25823,0.25823 0 0 0 9.545,0 0.25823,0.25823 0 0 0 9.291,0.2617 V 1.8027 H 6.709 V 0.2617 A 0.25823,0.25823 0 0 0 6.4473,0 0.25823,0.25823 0 0 0 6.1934,0.2617 V 1.8027 H 3.6113 V 0.2617 A 0.25823,0.25823 0 0 0 3.3477,0 Z M 3.5,9 H 12.5 C 12.777,9 13,9.223 13,9.5 13,9.777 12.777,10 12.5,10 H 3.5 C 3.223,10 3,9.777 3,9.5 3,9.223 3.223,9 3.5,9 Z M 3.5,12 H 12.5 C 12.777,12 13,12.223 13,12.5 13,12.777 12.777,13 12.5,13 H 3.5 C 3.223,13 3,12.777 3,12.5 3,12.223 3.223,12 3.5,12 Z"/>
</svg>

<svg xmlns="http://www.w3.org/2000/svg" width="16" height="16"><defs><style id="current-color-scheme" type="text/css"></style></defs><path d="M3.348 0a.258.258 0 0 0-.254.262V1.83A1.536 1.536 0 0 0 1.83 3.094H.262a.259.259 0 1 0 0 .517h1.54v2.582H.263a.258.258 0 1 0 0 .516h1.54v2.582H.263a.258.258 0 1 0 0 .516h1.54v2.582H.263a.259.259 0 1 0 0 .517H1.83c.109.65.615 1.155 1.264 1.264v1.568a.259.259 0 1 0 .517 0v-1.541h2.582v1.541a.258.258 0 1 0 .516 0v-1.541h2.582v1.541a.258.258 0 1 0 .516 0v-1.541h2.582v1.541a.259.259 0 1 0 .517 0V14.17a1.536 1.536 0 0 0 1.264-1.264h1.568a.258.258 0 0 0 .262-.261.258.258 0 0 0-.262-.256h-1.541V9.807h1.541A.258.258 0 0 0 16 9.545a.258.258 0 0 0-.262-.254h-1.541V6.709h1.541A.258.258 0 0 0 16 6.447a.258.258 0 0 0-.262-.254h-1.541V3.611h1.541A.258.258 0 0 0 16 3.348a.258.258 0 0 0-.262-.254H14.17a1.536 1.536 0 0 0-1.264-1.264V.262A.258.258 0 0 0 12.643 0a.258.258 0 0 0-.254.262v1.54H9.807V.263A.258.258 0 0 0 9.545 0a.258.258 0 0 0-.254.262v1.54H6.709V.263A.258.258 0 0 0 6.447 0a.258.258 0 0 0-.254.262v1.54H3.611V.263A.258.258 0 0 0 3.348 0zM3.5 9h9a.499.499 0 1 1 0 1h-9a.499.499 0 1 1 0-1zm0 3h9a.499.499 0 1 1 0 1h-9a.499.499 0 1 1 0-1z" fill="currentColor" color="#bebebe"/></svg>
